22x22/apps/distributor-logo-knoppix.svg

<svg xmlns="http://www.w3.org/2000/svg" width="22" height="22" version="1.1">
 <g transform="translate(-1,-1)">
  <path style="opacity:0.2" d="M 10,17.5 H 14 L 18,19.5 C 18,19.5 19,18.5 21,18.5 22,19.5 22,20.5 22,20.5 L 19,21.5 H 15 L 12,19.5 9,21.5 H 5 L 2,20.5 C 2,20.5 2,18.5 3,18.5 5,18.5 6,19.5 6,19.5 Z"/>
  <path style="fill:#f77d00" d="M 6,17 H 18 L 19,19 C 19,19 20,18 21,18 22,18 22,20 22,20 L 19,21 H 15 L 12,19 9,21 H 5 L 2,20 C 2,20 2,18 3,18 4,18 5,19 5,19 Z"/>
  <path style="opacity:0.2" d="M 14,22.5 H 20 C 20,20.5 17.66,19.65 16,19.5 14.515,19.366 12,21.5 12,21.5 12,21.5 8.7584,19.139 7,19.5 5.6147,19.784 4,20.5 4,22.5 H 10 L 12,21.5 Z"/>
  <path style="fill:#eab108" d="M 14,22 H 20 C 20,20 17.66,19.15 16,19 14.515,18.866 12,21 12,21 12,21 8.7584,18.639 7,19 5.6147,19.284 4,20 4,22 H 10 L 12,21 Z"/>
  <path style="opacity:0.2;fill:#f4f4f7" d="M 6,17 5,19 C 5,19 4,18 3,18 2,18 2,20 2,20 L 2.043,20.014 C 2.1103,19.423 2.3132,18.5 3,18.5 4,18.5 5,19.5 5,19.5 L 6,17.5 H 18 L 19,19.5 C 19,19.5 20,18.5 21,18.5 21.687,18.5 21.89,19.423 21.957,20.014 L 22,20 C 22,20 22,18 21,18 20,18 19,19 19,19 L 18,17 Z"/>
  <path style="opacity:0.2;fill:#f4f4f7" d="M 7.3457,18.963 C 7.2254,18.965 7.1099,18.977 7,19 5.6147,19.284 4,20 4,22 H 4.0527 C 4.3046,20.386 5.7399,19.759 7,19.5 8.4089,19.211 10.693,20.62 11.576,21.211 L 12,21 C 12,21 9.1507,18.925 7.3457,18.963 Z M 12,21 12.385,21.193 C 13.133,20.616 14.858,19.397 16,19.5 17.513,19.636 19.586,20.358 19.941,22 H 20 C 20,20 17.66,19.15 16,19 14.515,18.866 12,21 12,21 Z"/>
  <path style="opacity:0.2" d="M 5,10.5 C 5,10.5 4,9.5 3,7.5 3,7.0689 3,6.5 4,6.5 7,8.5 11,10.5 11,10.5 H 13 C 13,10.5 17,8.5 20,6.5 20.467,6.5626 21,7.0615 21,7.5 20,9.5 19,10.5 19,10.5 L 12,11.5 Z"/>
  <path style="fill:#4f4f4f" d="M 5,10 C 5,10 4,9 3,7 3,6.5689 3,6 4,6 7,8 11,10 11,10 H 13 C 13,10 17,8 20,6 20.467,6.0626 21,6.5615 21,7 20,9 19,10 19,10 L 12,11 Z"/>
  <path style="opacity:0.1;fill:#f4f4f7" d="M 4,6 C 3,6 3,6.5689 3,7 3.0148,7.0296 3.0282,7.0489 3.043,7.0781 3.1108,6.7711 3.3145,6.5 4,6.5 7,8.5 11,10.5 11,10.5 H 13 C 13,10.5 17,8.5 20,6.5 20.349,6.5468 20.735,6.8373 20.908,7.1641 20.939,7.1035 20.969,7.0625 21,7 21,6.5615 20.467,6.0626 20,6 17,8 13,10 13,10 H 11 C 11,10 7,8 4,6 Z"/>
  <path style="opacity:0.2" d="M 12,1.5 C 9.9118,1.5 8,3.284 8,5.5 8,7.9583 7.2744,9.3259 6.5371,10.5 H 2 V 11.5 C 3,12.5 4,12.5 4,12.5 5,12.5 5,13.715 5,14.5 5,18.366 8.134,21.5 12,21.5 15.866,21.5 19,18.366 19,14.5 19,13.715 18.843,13.085 18.609,12.518 18.609,12.518 21,12.5 22,11.5 V 10.5 H 17.463 C 16.726,9.3259 16,7.9583 16,5.5 16,3.284 14.088,1.5 12,1.5 Z"/>
  <path style="fill:#cbcbcb" d="M 12,1 C 9.9118,1 8,2.784 8,5 8,7.4583 7.2744,8.8259 6.5371,10 H 2 V 11 C 3,12 4,12 4,12 5,12 5,13.215 5,14 5,17.866 8.134,21 12,21 15.866,21 19,17.866 19,14 19,13.215 18.843,12.585 18.609,12.018 18.609,12.018 21,12 22,11 V 10 H 17.463 C 16.726,8.8259 16,7.4583 16,5 16,2.784 14.088,1 12,1 Z"/>
  <path style="opacity:0.1" d="M 12,7.4999 C 10.807,7.4999 10,8.5703 10,9.8999 10,12.9 8.0001,13.2 8.0001,15.3 8.0001,17.619 9.7909,19.5 12,19.5 14.209,19.5 16,17.619 16,15.3 16,13.2 14,12.9 14,9.8999 14,8.5703 13.193,7.4999 12,7.4999 Z"/>
  <path style="fill:#f4f4f7" d="M 12,7 C 10.807,7 10,8.0704 10,9.4 10,12.4 8.0001,12.7 8.0001,14.8 8.0001,17.119 9.7909,19 12,19 14.209,19 16,17.119 16,14.8 16,12.7 14,12.4 14,9.4 14,8.0704 13.193,7 12,7 Z"/>
  <circle style="opacity:0.1" cx="10.5" cy="6" r="1.5"/>
  <circle style="fill:#f4f4f7" cx="10.5" cy="5.5" r="1.5"/>
  <circle style="fill:#f4f4f7" cx="10.5" cy="5.5" r=".5"/>
  <circle style="opacity:0.1" cx="13.5" cy="6" r="1.5"/>
  <circle style="fill:#f4f4f7" cx="13.5" cy="5.5" r="1.5"/>
  <path style="opacity:0.1" d="M 14,7.6997 C 14,9.0803 13.105,10.5 12,10.5 10.895,10.5 10,9.0803 10,7.6997 Z"/>
  <path style="fill:#f77d00" d="M 14,7.1997 C 14,8.5803 13.105,9.9997 12,9.9997 10.895,9.9997 10,8.5803 10,7.1997 Z"/>
  <circle style="fill:#f4f4f7" cx="13.5" cy="5.5" r=".5"/>
  <path style="fill:#eab108" d="M 14,7.2501 C 14,7.5 13.105,9 12,9 10.895,9 10,7.5 10,7.2501 10,6.5597 10.895,6.0001 12,6.0001 13.105,6.0001 14,6.5597 14,7.2501 Z"/>
  <path style="opacity:0.2;fill:#f4f4f7" d="M 12,1 C 9.9118,1 8,2.784 8,5 8,7.4583 7.2744,8.8259 6.5371,10 H 2 V 10.5 H 6.5371 C 7.2744,9.3259 8,7.9583 8,5.5 8,3.284 9.9118,1.5 12,1.5 14.088,1.5 16,3.284 16,5.5 16,7.9583 16.726,9.3259 17.463,10.5 H 22 V 10 H 17.463 C 16.726,8.8259 16,7.4583 16,5 16,2.784 14.088,1 12,1 Z M 18.764,12.51 C 18.72,12.511 18.609,12.518 18.609,12.518 18.817,13.02 18.957,13.578 18.988,14.242 18.991,14.161 19,14.082 19,14 19,13.427 18.9,12.953 18.764,12.51 Z"/>
 </g>
</svg>

<svg xmlns="http://www.w3.org/2000/svg" width="22" height="22"><g transform="translate(-1 -1)"><path style="opacity:.2" d="M10 17.5h4l4 2s1-1 3-1c1 1 1 2 1 2l-3 1h-4l-3-2-3 2H5l-3-1s0-2 1-2c2 0 3 1 3 1z"/><path style="fill:#f77d00" d="M6 17h12l1 2s1-1 2-1 1 2 1 2l-3 1h-4l-3-2-3 2H5l-3-1s0-2 1-2 2 1 2 1z"/><path style="opacity:.2" d="M14 22.5h6c0-2-2.34-2.85-4-3-1.485-.134-4 2-4 2s-3.242-2.361-5-2c-1.385.284-3 1-3 3h6l2-1z"/><path style="fill:#eab108" d="M14 22h6c0-2-2.34-2.85-4-3-1.485-.134-4 2-4 2s-3.242-2.361-5-2c-1.385.284-3 1-3 3h6l2-1z"/><path style="opacity:.2;fill:#f4f4f7" d="m6 17-1 2s-1-1-2-1-1 2-1 2l.043.014c.067-.591.27-1.514.957-1.514 1 0 2 1 2 1l1-2h12l1 2s1-1 2-1c.687 0 .89.923.957 1.514L22 20s0-2-1-2-2 1-2 1l-1-2z"/><path style="opacity:.2;fill:#f4f4f7" d="M7.346 18.963c-.12.002-.236.014-.346.037-1.385.284-3 1-3 3h.053C4.305 20.386 5.74 19.759 7 19.5c1.409-.289 3.693 1.12 4.576 1.711L12 21s-2.85-2.075-4.654-2.037zM12 21l.385.193c.748-.577 2.473-1.796 3.615-1.693 1.513.136 3.586.858 3.941 2.5H20c0-2-2.34-2.85-4-3-1.485-.134-4 2-4 2z"/><path style="opacity:.2" d="M5 10.5s-1-1-2-3c0-.431 0-1 1-1 3 2 7 4 7 4h2s4-2 7-4c.467.063 1 .561 1 1-1 2-2 3-2 3l-7 1z"/><path style="fill:#4f4f4f" d="M5 10S4 9 3 7c0-.431 0-1 1-1 3 2 7 4 7 4h2s4-2 7-4c.467.063 1 .561 1 1-1 2-2 3-2 3l-7 1z"/><path style="opacity:.1;fill:#f4f4f7" d="M4 6c-1 0-1 .569-1 1 .015.03.028.049.043.078.068-.307.271-.578.957-.578 3 2 7 4 7 4h2s4-2 7-4c.349.047.735.337.908.664.031-.06.061-.101.092-.164 0-.439-.533-.937-1-1-3 2-7 4-7 4h-2S7 8 4 6z"/><path style="opacity:.2" d="M12 1.5c-2.088 0-4 1.784-4 4 0 2.458-.726 3.826-1.463 5H2v1c1 1 2 1 2 1 1 0 1 1.215 1 2a7 7 0 1 0 14 0c0-.785-.157-1.415-.391-1.982 0 0 2.391-.018 3.391-1.018v-1h-4.537C16.726 9.326 16 7.958 16 5.5c0-2.216-1.912-4-4-4z"/><path style="fill:#cbcbcb" d="M12 1C9.912 1 8 2.784 8 5c0 2.458-.726 3.826-1.463 5H2v1c1 1 2 1 2 1 1 0 1 1.215 1 2a7 7 0 1 0 14 0c0-.785-.157-1.415-.391-1.982C18.609 12.018 21 12 22 11v-1h-4.537C16.726 8.826 16 7.458 16 5c0-2.216-1.912-4-4-4z"/><path style="opacity:.1" d="M12 7.5c-1.193 0-2 1.07-2 2.4 0 3-2 3.3-2 5.4 0 2.319 1.79 4.2 4 4.2 2.209 0 4-1.881 4-4.2 0-2.1-2-2.4-2-5.4 0-1.33-.807-2.4-2-2.4z"/><path style="fill:#f4f4f7" d="M12 7c-1.193 0-2 1.07-2 2.4 0 3-2 3.3-2 5.4 0 2.319 1.79 4.2 4 4.2 2.209 0 4-1.881 4-4.2 0-2.1-2-2.4-2-5.4 0-1.33-.807-2.4-2-2.4z"/><circle style="opacity:.1" cx="10.5" cy="6" r="1.5"/><circle style="fill:#f4f4f7" cx="10.5" cy="5.5" r="1.5"/><circle style="fill:#f4f4f7" cx="10.5" cy="5.5" r=".5"/><circle style="opacity:.1" cx="13.5" cy="6" r="1.5"/><circle style="fill:#f4f4f7" cx="13.5" cy="5.5" r="1.5"/><path style="opacity:.1" d="M14 7.7c0 1.38-.895 2.8-2 2.8s-2-1.42-2-2.8z"/><path style="fill:#f77d00" d="M14 7.2c0 1.38-.895 2.8-2 2.8s-2-1.42-2-2.8z"/><circle style="fill:#f4f4f7" cx="13.5" cy="5.5" r=".5"/><path style="fill:#eab108" d="M14 7.25C14 7.5 13.105 9 12 9s-2-1.5-2-1.75c0-.69.895-1.25 2-1.25s2 .56 2 1.25z"/><path style="opacity:.2;fill:#f4f4f7" d="M12 1C9.912 1 8 2.784 8 5c0 2.458-.726 3.826-1.463 5H2v.5h4.537C7.274 9.326 8 7.958 8 5.5c0-2.216 1.912-4 4-4s4 1.784 4 4c0 2.458.726 3.826 1.463 5H22V10h-4.537C16.726 8.826 16 7.458 16 5c0-2.216-1.912-4-4-4zm6.764 11.51c-.044.001-.155.008-.155.008.208.502.348 1.06.379 1.724.003-.081.012-.16.012-.242 0-.573-.1-1.047-.236-1.49z"/></g></svg>
